X:411
T:Barbara Needham's
R:jig
D:Arty McGlynn and Nollaig Casey: Lead The Knave
D:Padraig Rynne
Z:hn-jig-411
M:6/8
L:1/8
K:Dmix
A2d cAA | GEG A2G | A2d cAA | GEC D2G | A2d cAA | GEG AGF | GAB cBA |
[1 GEC D2G :|2 GEC D2E |: G2E A2E | AcB A2E | G2E ABc | GEC D2E |
G2E A2E | AcB AGF | GAB cBA |1 GEC D2E :|2 GEC D2G ||
P:variations
|: Add c2A | GEG A2G | Add cAA | GEC D2G | Add cAA | GEG A2F | GAB cBA |
[1 GEC D2G :|2 GEC D2E |: G2E A2E | AcB A2E | G2E ~A3 | GEC D2E |
G2E A2E | AcB A2F | GAB cBA |1 GEC D2E :|2 GEC D2G ||

